X:1
T: Mr. Webster
C:
R:Strathspey
Q: 128
K:Bm
M:4/4
L:1/16
|:F2|FB3 B3c dcBA B4|FB3 B3c d3c B3A|FB3 B3c dcBA B4|A3F D3d c3d B2F2|
FB3 B3c dcBA B4|FB3 B3c d3c B3A|FB3 B3c dcBA B4|A3F D3d c3d B2A2|
A3B d3e fedc d4|A3B d3e fd3 ec3|A3B d3e fedc d4|A3F D3d c3d B2A2|
A3B d3e fedc d4|A3B d3e fd3 ec3|d3f c3e B3d A3B|A3F D3d c3d B2:|
